icons/lines/quote-up-square.svg

<svg xmlns="http://www.w3.org/2000/svg" width="24" height="24" viewBox="0 0 24 24" fill="none" stroke="currentColor" stroke-width="2" stroke-linecap="round" stroke-linejoin="round" >
  <path d="M9 22H15C20 22 22 20 22 15V9C22 4 20 2 15 2H9C4 2 2 4 2 9V15C2 20 4 22 9 22Z"/>
  <path d="M17.0004 11.84H14.3204C13.6104 11.84 13.1304 11.3 13.1304 10.65V9.15997C13.1304 8.50997 13.6104 7.96997 14.3204 7.96997H15.8104C16.4604 7.96997 17.0004 8.50997 17.0004 9.15997V11.84Z"/>
  <path d="M17.0002 11.84C17.0002 14.63 16.4802 15.1 14.9102 16.03"/>
  <path d="M10.8602 11.84H8.18023C7.47023 11.84 6.99023 11.3 6.99023 10.65V9.15997C6.99023 8.50997 7.47023 7.96997 8.18023 7.96997H9.67023C10.3202 7.96997 10.8602 8.50997 10.8602 9.15997V11.84Z"/>
  <path d="M10.86 11.84C10.86 14.63 10.34 15.1 8.77002 16.03"/>
  </svg>

<svg xmlns="http://www.w3.org/2000/svg" width="24" height="24" viewBox="0 0 24 24" fill="none" stroke="currentColor" stroke-width="2" stroke-linecap="round" stroke-linejoin="round">
  <path d="M10.86 11.84c0 2.79-.52 3.26-2.09 4.19" />
  <path d="M10.86 11.84H8.18a1.16 1.16 0 0 1-1.19-1.19V9.16a1.16 1.16 0 0 1 1.19-1.19h1.49a1.2 1.2 0 0 1 1.19 1.19z" />
  <path d="M15 22c5 0 7-2 7-7V9c0-5-2-7-7-7H9C4 2 2 4 2 9v6c0 5 2 7 7 7z" />
  <path d="M17 11.84c0 2.79-.52 3.26-2.09 4.19" />
  <path d="M17 11.84h-2.68a1.16 1.16 0 0 1-1.19-1.19V9.16a1.16 1.16 0 0 1 1.19-1.19h1.49A1.2 1.2 0 0 1 17 9.16z" />
</svg>
